X: 12
T: Captain Campbell
R: strathspey
M: 4/4
L: 1/8
K: Ador
|: E>AA>B c2 B>A | G>Bd>c B<GG>D |
E>AA>B c>Bc>e | (3dcB g>B B<A A2 :|
|: A>aa>g a>bg>e | d>Bg>d B>AG>B |
[1 A>aa>g a>bg>e | d>Bg>B B<AA>G :|
[2 A>^GA>B c>Bc>d | (3efg d>g B<A A2 |]
|: A |E<AA>B c>AB<G | E<GG>A B>d c/B/A/G/ |
E<AA>B c>Bc>e | d<Bg>B A2 A :|
|: B |A<aa>g e>dc<e | d>eg>e d/c/B/A/ G>B |
[1 A>aa<g e>dc<e | d<Bg>B A2 A :|
[2 c<Ad>B e>dc<e | d<Bg>B A2 A |]
|: G |E<AA>B c>AB>G | D<GG>A B>d c/B/A/G/ |
E<AA>B c>Bc>g | d<Bg>B A2-A :|
|: G |A<aa>g e>dc<g | e>dc>e d/c/B/A/ G>e |
[1 A<aa>g e>dc<g | d<Bg>B A2-A :|
[2 A<aa>A d>dc<e | d<Bg>B A2-A |]
|: A>G |E<AA>B c>AB<G | D<GG>A B>d c/B/A/G/ |
E<AA>B c>Bc<e | d<Bg<B A2 :|
|: A>B |A<aa>g e>dc<e | d>eg>e d/c/B/A/ G>B |
[1 A<aa>g e>dc<e | d<Bg<B A2 :|
[2 c<Ad>B e>dc<e | d<Bg>B A2 |]
|: A>A |E<AA>B c>AB>G | D<GG>A B>d c/B/A/G/ |
E<AA>B c>Bc<e | d<Bg<B A2 :|
|: A>B |A<aa>g e>dc<e | d>eg>e d/c/B/A/ G>B |
[1 A<aa>g e>dc<e | d<Bg<B A<A :|
[2 c<Ad<B e>dc<e | d<Bg<B A2 |]
|: E<AA>B c2 B<A | D<GG>A B2 c/B/A/G/ |
E<AA>B c>Bc<e | d<Bg<B A2 A2 :|
|: A<aa>g e2 c<e | d>eg>e d/c/B/A/ G2 |
[1 A<aa>g e>dc<e | d<Bg<B A2 A2 :|
[2 c<Ad<B e>dc<e | d<Bg<B A2 A2 |]


Tune 1557	Setting 14961

